X: 10381
T: LAOIDH AN T' SLANUIDHFEAR
O: Gaelic air.
Q: "Solemnly slow."
%R: air, march
B: W. Hamilton "Universal Tune-Book" Vol. 1 Glasgow 1844 p.38 #1
S: http://imslp.org/wiki/Hamilton's_Universal_Tune-Book_(Various)
Z: 2016 John Chambers <jc:trillian.mit.edu>
N: The rhythm of the last 3 notes in bar 14 are wrong; fixed to match bars 6 and 10.
M: C
L: 1/16
K: G
%%slurgraces yes
%%graceslurs yes
% - - - - - - - - - - - - - - - - - - - - - - - - -
DEF2 |\
G3A B3A G3ED2 zF | GB3 A4 G4 z2Bc |\
d2(ef) g3a g3dB2d2 | B3AB2^d2 e4 z2Bc |\
d2(ef) g3a g3f e2(fg) | (d2B2)(A2G2) E4 z2E/D/E/F/ |\
G3D E2G2 e4 Hg4 | (d2B2) A4 {AB}G4 :|
|: (GA)B2 |\
c3d e3^c d2D2D2e2 | (dB3) A4 G4 z2d/e/f |\
g3a b3a g3dB2d2 | B3AB2^d2 {d}e4 z2g/f/g/a/ |\
b3ag3f g3f e2fg | (d2B2)(A2G2) E4 z2D/E/F |\
(G3D)(E2G2) {c}e4 Hg4 | d2B2 A4 {GA}G4 |]
% - - - - - - - - - - - - - - - - - - - - - - - - -

%%sep 1 1 500
%%sep 1 1 500

